assets/images/search.svg

<?xml version="1.0" encoding="utf-8"?>
<!-- Generator: Adobe Illustrator 16.2.1, SVG Export Plug-In . SVG Version: 6.00 Build 0)  -->
<!DOCTYPE svg PUBLIC "-//W3C//DTD SVG 1.1//EN" "http://www.w3.org/Graphics/SVG/1.1/DTD/svg11.dtd">
<svg version="1.1" id="Layer_1" xmlns="http://www.w3.org/2000/svg" xmlns:xlink="http://www.w3.org/1999/xlink" x="0px" y="0px"
	 width="37px" height="37px" viewBox="0 0 37 37" enable-background="new 0 0 37 37" xml:space="preserve">
<g>
	<path fill-rule="evenodd" clip-rule="evenodd" d="M0.144,33.211c1.906-1.779,3.846-3.523,5.706-5.35
		c1.504-1.477,2.913-3.053,4.566-4.797c1.225,1.172,2.224,2.129,3.394,3.248c-3.451,3.572-6.778,7.016-10.105,10.459
		c-0.169,0-0.339,0-0.508,0c-1.518-0.516-2.536-1.533-3.052-3.051C0.144,33.551,0.144,33.381,0.144,33.211z"/>
	<path fill-rule="evenodd" clip-rule="evenodd" d="M36.34,9.805c-2.368-7.371-10.064-11.443-17.369-9.18
		C11.566,2.919,7.523,10.462,9.689,17.94c1.666,5.753,6.625,9.664,12.447,9.814c6.869,0.178,12.108-3.266,14.149-9.281
		C36.578,17.609,37.704,14.373,36.34,9.805z M22.96,25.578c-6.273-0.025-11.582-5.299-11.56-11.481
		c0.024-6.372,5.31-11.746,11.598-11.79c6.249-0.043,11.688,5.395,11.697,11.698C34.706,20.35,29.377,25.605,22.96,25.578z"/>
	<path fill-rule="evenodd" clip-rule="evenodd" d="M13.811,14.179c0.587-6.118,2.877-8.928,7.796-9.217
		C17.079,6.843,14.814,10,13.811,14.179z"/>
</g>
</svg>

<svg width="37px" height="37px" viewBox="0 0 37 37" version="1.1" xmlns="http://www.w3.org/2000/svg" xmlns:xlink="http://www.w3.org/1999/xlink">
    <g id="Page-1" stroke="none" stroke-width="1" fill="none" fill-rule="evenodd">
        <g id="search" fill="#000000" fill-rule="nonzero">
            <path d="M0.144,33.211 C2.05,31.432 3.99,29.688 5.85,27.861 C7.354,26.384 8.763,24.808 10.416,23.064 C11.641,24.236 12.64,25.193 13.81,26.312 C10.359,29.884 7.032,33.328 3.705,36.771 C3.536,36.771 3.366,36.771 3.197,36.771 C1.679,36.255 0.661,35.238 0.145,33.72 C0.144,33.551 0.144,33.381 0.144,33.211 Z" id="Shape"></path>
            <path d="M36.34,9.805 C33.972,2.434 26.276,-1.638 18.971,0.625 C11.566,2.919 7.523,10.462 9.689,17.94 C11.355,23.693 16.314,27.604 22.136,27.754 C29.005,27.932 34.244,24.488 36.285,18.473 C36.578,17.609 37.704,14.373 36.34,9.805 Z M22.96,25.578 C16.687,25.553 11.378,20.279 11.4,14.097 C11.424,7.725 16.71,2.351 22.998,2.307 C29.247,2.264 34.686,7.702 34.695,14.005 C34.706,20.35 29.377,25.605 22.96,25.578 Z" id="Shape"></path>
            <path d="M13.811,14.179 C14.398,8.061 16.688,5.251 21.607,4.962 C17.079,6.843 14.814,10 13.811,14.179 Z" id="Shape"></path>
        </g>
    </g>
</svg>
